X:1
T:Once I Thought I Walked with Jesus
T:Francis Augustus Blackmer, 1884
T:Once I Thought I Walked with Jesus
T:Public Domain
T:Public Domain
C:Francis Augustus Blackmer, 1884
Z:Public Domain
%%score ( 1 2 ) ( 3 4 )
L:1/8
M:4/4
K:C
V:1 treble 
V:2 treble 
V:3 bass 
V:4 bass 
V:1
 [EG]3 [EG] [EG][EG][FA][EG] | [EG]2 [CE]6 | [DF]3 [CE] [B,D][CE][DF][B,G] | [CE]6 z2 | %4
w: 1.~Once I thought I walked with|Je- sus,|Yet such change- ful feel- ings|had,|
w: 2.~But He called me clos- er|to Him,|Bade my doubts and fears all|cease,|
w: 3.~Now I’m trust- ing ev- ery|mo- ment,|No- thing less can be e-|nough;|
w: 4.~Bless- èd Sav- ior, Thou dost|keep me|By Thy power from day to|day,|
 [Ec]3 [Fc] [Gc][Gc][Gd][Gc] | [GB]2 [FA]6 | [DB]3 [DA] [EG][CE] [DF]>[B,D] | C6 z2 || %8
w: Some- times trust- ing, some- times|doubt- ing,|Some- times joy- ful, some- times|sad.|
w: And, when I had full- y|yield- ed,|Filled my soul with per- fect|peace.|
w: And my Sav- ior bears me|gent- ly|O’er the plac- es once so|rough.|
w: And my heart is full of|glad- ness,|For Thou’lt keep me all the|way.|
"^Refrain" [EG]3 [EG] [FA][EG][CE][EG] | [Ec]8 | [GB]3 [^FA] [=FG]<[FA] [EG]>[DF] | [CE]6 z2 | %12
w: ||||
w: the peace my Sav- ior gives,|Peace|I nev- er knew be- fore!|And|
w: ||||
w: ||||
 [Ec]3 [Ec] Bcdc | (C4 D4) | [DB]3 [CA] [B,G][CA] [DB]<[Fd] | [Ec]6 z2 |] %16
w: ||||
w: my way has bright- er grown|learned *|trust Him more. * * *||
w: ||||
w: ||||
V:2
 x8 | x8 | x8 | x8 | x8 | x8 | x8 | C6 x2 || x8 | x8 | x8 | x8 | x4 E2 E2 | A8 | x8 | x8 |] %16
w: ||||||||||||||||
w: |||||||O|||||Since I|to|||
V:3
 [C,C]3 [C,C] [C,C]2 [C,C]2 | [C,C]2 [C,G,]6 | [G,,G,]3 [G,,G,] [G,,G,]2 [G,,G,]2 | [C,G,]6 z2 | %4
 [C,G,]3 [D,G,] [E,G,][E,C][E,B,][E,C] | [F,C]2 [F,C]6 | [G,B,]3 [G,B,] [G,C]G, [G,,G,]>[G,,F,] | %7
 [C,E,]6 z2 || [C,C]3 [C,C] [C,C]2 [C,G,]2 | [C,G,]8 | [G,,D]3 [G,,C] [G,,B,]2 [G,,B,]2 | %11
 [C,G,]6 z2 | [C,G,]3 [C,G,] [E,^G,]2 [E,G,]2 | (F,4 ^F,4) | G,3 G, G,2 G,2 | [C,G,]6 z2 |] %16
V:4
 x8 | x8 | x8 | x8 | x8 | x8 | x5 G, x2 | x8 || x8 | x8 | x8 | x8 | x8 | A,8 | G,3 G, G,2 G,2 | %15
 x8 |] %16

